src/assets/images/nav/manga.svg

<svg xmlns="http://www.w3.org/2000/svg" xmlns:xlink="http://www.w3.org/1999/xlink" version="1.1" viewBox="0 0 30 30" enable-background="new 0 0 30 30" width="100%" height="100%" ><rect id="svgEditorBackground" x="0" y="0" width="30" height="30" style="fill: none; stroke: none;"/>
  <g>
    <g>
      <path fill-rule="evenodd" d="M5,15h8c0.5519999999999996,0,1,-0.4469999999999992,1,-1v-4c0,-0.5530000000000008,-0.4480000000000004,-1,-1,-1h-8c-0.5519999999999996,0,-1,0.4469999999999992,-1,1v4c0,0.5530000000000008,0.4480000000000004,1,1,1ZM6,11h6v2h-6v-2ZM5,27h8c0.5519999999999996,0,1,-0.4469999999999992,1,-1v-4c0,-0.5530000000000008,-0.4480000000000004,-1,-1,-1h-8c-0.5519999999999996,0,-1,0.4469999999999992,-1,1v4c0,0.5530000000000008,0.4480000000000004,1,1,1ZM6,23h6v2h-6v-2ZM29.959,0.7970000000000006c-0.09600000000000009,-0.4509999999999998,-0.4789999999999992,-0.797,-0.9589999999999996,-0.797c-0.1509999999999998,0,-0.3219999999999992,0.03900000000000004,-0.4499999999999993,0.09900000000000017l-11.762,4.900999999999999h-15.788c-0.5519999999999997,0,-1,0.44700000000000006,-1,1v23c0,0.5530000000000008,0.4480000000000004,1,1,1h15.951c0.14999999999999858,0,0.2890000000000015,-0.038000000000000256,0.4170000000000016,-0.09799999999999898c0.0010000000000012221,0,0.0010000000000012221,-0.0010000000000012221,0.0010000000000012221,-0.0010000000000012221l12.129999999999999,-4.995000000000001c0,-0.021000000000000796,0.027999999999998693,-0.004999999999999005,0.027999999999998693,-0.0259999999999998c0.2970000000000006,-0.1739999999999995,0.472999999999999,-0.5130000000000017,0.472999999999999,-0.879999999999999v-23c0,-0.07099999999999995,-0.015000000000000568,-0.13899999999999968,-0.04100000000000037,-0.20300000000000007ZM15.951,28h-13.951v-21h13.951v21ZM28,23.25l-10.049,4.437999999999999v-20.938l10.049,-4.188v20.688ZM20.026,14.13c0.036999999999999034,0.2680000000000007,0.17299999999999827,0.49600000000000044,0.3780000000000001,0.6519999999999992c0.006000000000000227,0.005000000000000782,0.013000000000001677,0.009000000000000341,0.019999999999999574,0.013999999999999346c0.09299999999999997,0.06700000000000017,0.19399999999999906,0.11800000000000033,0.30799999999999983,0.15000000000000036c0.022999999999999687,0.006999999999999673,0.0470000000000006,0.009000000000000341,0.0710000000000015,0.013999999999999346c0.06599999999999895,0.013999999999999346,0.1269999999999989,0.03999999999999915,0.19699999999999918,0.03999999999999915l0.045000000000001705,-0.022999999999999687c0.16000000000000014,-0.005000000000000782,0.3200000000000003,-0.03500000000000014,0.46799999999999997,-0.11999999999999922l3.811,-1.923c0.3910000000000018,-0.1349999999999998,0.6759999999999984,-0.49600000000000044,0.6759999999999984,-0.9339999999999993v-5c0,-0.18700000000000028,-0.06500000000000128,-0.351,-0.1529999999999987,-0.5c-0.0010000000000012221,-0.0030000000000001137,-0.0010000000000012221,-0.006000000000000227,-0.0030000000000001137,-0.009000000000000341c-0.004000000000001336,-0.006000000000000227,-0.009000000000000341,-0.009000000000000341,-0.013000000000001677,-0.01499999999999968c-0.05999999999999872,-0.09499999999999975,-0.129999999999999,-0.17799999999999994,-0.21699999999999875,-0.2469999999999999c-0.036000000000001364,-0.028999999999999915,-0.07400000000000162,-0.04999999999999982,-0.11199999999999832,-0.07500000000000018c-0.05999999999999872,-0.03500000000000014,-0.11899999999999977,-0.06700000000000017,-0.18599999999999994,-0.09100000000000019c-0.08200000000000074,-0.028999999999999915,-0.16400000000000148,-0.041999999999999815,-0.2510000000000012,-0.051000000000000156c-0.022999999999999687,0,-0.04200000000000159,-0.011999999999999567,-0.06500000000000128,-0.011999999999999567l-0.015000000000000568,0.008000000000000007c-0.17299999999999827,-0.0019999999999997797,-0.3470000000000013,0.02400000000000002,-0.5070000000000014,0.11699999999999999l-3.9639999999999986,2c-0.036999999999999034,0.021000000000000796,-0.05900000000000105,0.05599999999999916,-0.09199999999999875,0.08099999999999952c-0.06299999999999883,0.045999999999999375,-0.12300000000000111,0.09299999999999997,-0.1739999999999995,0.15300000000000047c-0.0259999999999998,0.031000000000000583,-0.045000000000001705,0.06400000000000006,-0.06700000000000017,0.0990000000000002c-0.0519999999999996,0.07900000000000063,-0.0940000000000012,0.16000000000000014,-0.12300000000000111,0.25200000000000067c-0.0070000000000014495,0.022999999999999687,-0.009000000000000341,0.0470000000000006,-0.013999999999999346,0.07000000000000028c-0.01699999999999946,0.07399999999999984,-0.04400000000000048,0.14199999999999946,-0.04400000000000048,0.22000000000000064v5c0,0.038000000000000256,0.018000000000000682,0.07000000000000028,0.021000000000000796,0.10599999999999987c0.0019999999999988916,0.009000000000000341,0.004000000000001336,0.016000000000000014,0.004999999999999005,0.023999999999999133ZM22,9.611l2,-1.0090000000000003v2.873000000000001l-2,1v-2.8640000000000008ZM5,19h2c0.5519999999999996,0,1,-0.4469999999999992,1,-1s-0.4480000000000004,-1,-1,-1h-2c-0.5519999999999996,0,-1,0.4469999999999992,-1,1s0.4480000000000004,1,1,1ZM13,17h-2c-0.5519999999999996,0,-1,0.4469999999999992,-1,1s0.4480000000000004,1,1,1h2c0.5519999999999996,0,1,-0.4469999999999992,1,-1s-0.4480000000000004,-1,-1,-1Z" fill="white"/>
    </g>
  </g>
</svg>

<?xml version="1.0" encoding="UTF-8" standalone="no"?>
<!-- Created with Inkscape (http://www.inkscape.org/) -->

<svg
   xmlns:dc="http://purl.org/dc/elements/1.1/"
   xmlns:cc="http://creativecommons.org/ns#"
   xmlns:rdf="http://www.w3.org/1999/02/22-rdf-syntax-ns#"
   xmlns:svg="http://www.w3.org/2000/svg"
   xmlns="http://www.w3.org/2000/svg"
   xmlns:sodipodi="http://sodipodi.sourceforge.net/DTD/sodipodi-0.dtd"
   xmlns:inkscape="http://www.inkscape.org/namespaces/inkscape"
   width="32px"
   height="32px"
   viewBox="0 0 32 32"
   version="1.1"
   id="SVGRoot"
   inkscape:version="0.92.1 r15371"
   sodipodi:docname="manga.svg">
  <sodipodi:namedview
     id="base"
     pagecolor="#ffffff"
     bordercolor="#666666"
     borderopacity="1.0"
     inkscape:pageopacity="0.0"
     inkscape:pageshadow="2"
     inkscape:zoom="8"
     inkscape:cx="-5.3125"
     inkscape:cy="16"
     inkscape:document-units="px"
     inkscape:current-layer="layer1"
     showgrid="false"
     inkscape:window-width="1920"
     inkscape:window-height="1017"
     inkscape:window-x="1016"
     inkscape:window-y="-8"
     inkscape:window-maximized="1"
     inkscape:grid-bbox="true" />
  <defs
     id="defs420" />
  <metadata
     id="metadata423">
    <rdf:RDF>
      <cc:Work
         rdf:about="">
        <dc:format>image/svg+xml</dc:format>
        <dc:type
           rdf:resource="http://purl.org/dc/dcmitype/StillImage" />
        <dc:title />
      </cc:Work>
    </rdf:RDF>
  </metadata>
  <g
     id="layer1"
     inkscape:groupmode="layer"
     inkscape:label="Ebene 1">
    <g
       id="g410"
       style="fill:#ffffff"
       transform="matrix(0.86666667,0,0,0.86666667,0,6.000001)">
      <g
         id="g408"
         style="fill:#ffffff">
        <path
           inkscape:connector-curvature="0"
           d="m 5,15 h 8 c 0.552,0 1,-0.447 1,-1 V 10 C 14,9.447 13.552,9 13,9 H 5 C 4.448,9 4,9.447 4,10 v 4 c 0,0.553 0.448,1 1,1 z m 1,-4 h 6 v 2 H 6 Z M 5,27 h 8 c 0.552,0 1,-0.447 1,-1 v -4 c 0,-0.553 -0.448,-1 -1,-1 H 5 c -0.552,0 -1,0.447 -1,1 v 4 c 0,0.553 0.448,1 1,1 z m 1,-4 h 6 v 2 H 6 Z M 29.959,0.797 C 29.863,0.346 29.48,0 29,0 28.849,0 28.678,0.039 28.55,0.099 L 16.788,5 H 1 C 0.448,5 0,5.447 0,6 v 23 c 0,0.553 0.448,1 1,1 h 15.951 c 0.15,0 0.289,-0.038 0.417,-0.098 0.001,0 0.001,-0.001 0.001,-0.001 l 12.13,-4.995 c 0,-0.021 0.028,-0.005 0.028,-0.026 C 29.824,24.706 30,24.367 30,24 V 1 C 30,0.929 29.985,0.861 29.959,0.797 Z M 15.951,28 H 2 V 7 H 15.951 Z M 28,23.25 17.951,27.688 V 6.75 L 28,2.562 Z m -7.974,-9.12 c 0.037,0.268 0.173,0.496 0.378,0.652 0.006,0.005 0.013,0.009 0.02,0.014 0.093,0.067 0.194,0.118 0.308,0.15 0.023,0.007 0.047,0.009 0.071,0.014 C 20.869,14.974 20.93,15 21,15 l 0.045,-0.023 c 0.16,-0.005 0.32,-0.035 0.468,-0.12 l 3.811,-1.923 C 25.715,12.799 26,12.438 26,12 V 7 C 26,6.813 25.935,6.649 25.847,6.5 25.846,6.497 25.846,6.494 25.844,6.491 25.84,6.485 25.835,6.482 25.831,6.476 25.771,6.381 25.701,6.298 25.614,6.229 25.578,6.2 25.54,6.179 25.502,6.154 25.442,6.119 25.383,6.087 25.316,6.063 25.234,6.034 25.152,6.021 25.065,6.012 25.042,6.012 25.023,6 25,6 L 24.985,6.008 C 24.812,6.006 24.638,6.032 24.478,6.125 l -3.964,2 C 20.477,8.146 20.455,8.181 20.422,8.206 20.359,8.252 20.299,8.299 20.248,8.359 20.222,8.39 20.203,8.423 20.181,8.458 20.129,8.537 20.087,8.618 20.058,8.71 20.051,8.733 20.049,8.757 20.044,8.78 20.027,8.854 20,8.922 20,9 v 5 c 0,0.038 0.018,0.07 0.021,0.106 0.002,0.009 0.004,0.016 0.005,0.024 z M 22,9.611 24,8.602 v 2.873 l -2,1 z M 5,19 H 7 C 7.552,19 8,18.553 8,18 8,17.447 7.552,17 7,17 H 5 c -0.552,0 -1,0.447 -1,1 0,0.553 0.448,1 1,1 z m 8,-2 h -2 c -0.552,0 -1,0.447 -1,1 0,0.553 0.448,1 1,1 h 2 c 0.552,0 1,-0.447 1,-1 0,-0.553 -0.448,-1 -1,-1 z"
           id="path406"
           style="fill:#ffffff;fill-rule:evenodd" />
      </g>
    </g>
  </g>
</svg>
